X: 1180
T: The Milliner's Daughter
M:C|
L:1/8
R:Reel
B:O'Neill's 1180
N:collected by F. O'Neill
Z:Transcribed be Trish O'Neil, oneil@cybernw.com
K:G
G2(BG) DGBG | A2(eg) fdcA | G2(BG) DGBd | cAFG (AG)"End"G2 :|
| dg {a}(3gfg dg {a}(3gfg | d=f {g}(3fef d=f {g}(3fef | dg {a}(3gfg dg ({a}(3gfg | dcde fdcA |
| dg ({a}(3gfg bgaf | dcde fefg | afge fdec | dcde =fdcA |]


